static/img/zenrock-icon.svg

<?xml version="1.0" encoding="UTF-8"?>
<!DOCTYPE svg PUBLIC "-//W3C//DTD SVG 1.1//EN" "http://www.w3.org/Graphics/SVG/1.1/DTD/svg11.dtd">
<svg xmlns="http://www.w3.org/2000/svg" version="1.1" width="173px" height="173px" style="shape-rendering:geometricPrecision; text-rendering:geometricPrecision; image-rendering:optimizeQuality; fill-rule:evenodd; clip-rule:evenodd" xmlns:xlink="http://www.w3.org/1999/xlink">
<g><path style="opacity:0.978" fill="#010c41" d="M 72.5,-0.5 C 81.5,-0.5 90.5,-0.5 99.5,-0.5C 139.5,8.16667 163.833,32.5 172.5,72.5C 172.5,81.5 172.5,90.5 172.5,99.5C 163.833,139.5 139.5,163.833 99.5,172.5C 90.5,172.5 81.5,172.5 72.5,172.5C 32.5,163.833 8.16667,139.5 -0.5,99.5C -0.5,90.5 -0.5,81.5 -0.5,72.5C 8.16667,32.5 32.5,8.16667 72.5,-0.5 Z"/></g>
<g><path style="opacity:1" fill="#f3f4f7" d="M 37.5,118.5 C 39.424,114.74 42.2574,111.74 46,109.5C 46.6667,108.833 46.6667,108.167 46,107.5C 39.1331,110.473 31.9664,111.64 24.5,111C 23.2189,109.591 22.2189,108.091 21.5,106.5C 13.4132,75.533 21.7465,50.033 46.5,30C 55.0584,23.2589 64.7251,19.9256 75.5,20C 79.5123,24.8571 82.3457,30.3571 84,36.5C 86.2828,30.9915 88.9495,25.6582 92,20.5C 93.126,19.0564 94.626,18.3898 96.5,18.5C 126.043,25.2104 144.543,43.2104 152,72.5C 153.264,84.3744 152.264,96.041 149,107.5C 148.5,108 148,108.5 147.5,109C 140.011,109.793 132.677,109.46 125.5,108C 129.752,111.581 133.252,115.748 136,120.5C 137.422,123.03 137.755,125.697 137,128.5C 115.967,150.924 90.8007,157.424 61.5,148C 50.6668,143.831 41.5001,137.331 34,128.5C 33.3333,127.167 33.3333,125.833 34,124.5C 35.3937,122.612 36.5604,120.612 37.5,118.5 Z"/></g>
<g><path style="opacity:1" fill="#061041" d="M 97.5,27.5 C 100.945,28.0926 104.279,29.0926 107.5,30.5C 96.3523,53.5877 101.352,72.421 122.5,87C 129.123,90.3145 136.123,91.8145 143.5,91.5C 143.384,94.8599 143.051,98.1933 142.5,101.5C 118.656,100.493 102.489,88.8262 94,66.5C 89.8701,52.9733 91.0367,39.9733 97.5,27.5 Z"/></g>
<g><path style="opacity:1" fill="#181d45" d="M 52.5,71.5 C 52.6427,69.7376 52.3094,68.0709 51.5,66.5C 59.651,58.5928 60.651,49.7594 54.5,40C 49.6624,38.6724 47.329,40.5057 47.5,45.5C 46.1522,44.4732 45.6522,43.1398 46,41.5C 48.0673,38.93 50.5673,36.93 53.5,35.5C 58.686,41.9093 60.5193,49.2427 59,57.5C 57.8671,62.772 55.7004,67.4387 52.5,71.5 Z"/></g>
<g><path style="opacity:1" fill="#030d41" d="M 52.5,71.5 C 47.7803,78.5351 41.1136,82.5351 32.5,83.5C 30.8333,83.5 29.1667,83.5 27.5,83.5C 27.5,80.8333 27.5,78.1667 27.5,75.5C 27.4701,74.5028 27.9701,73.8361 29,73.5C 43.9236,69.9923 50.0903,60.659 47.5,45.5C 47.329,40.5057 49.6624,38.6724 54.5,40C 60.651,49.7594 59.651,58.5928 51.5,66.5C 52.3094,68.0709 52.6427,69.7376 52.5,71.5 Z"/></g>
<g><path style="opacity:1" fill="#061041" d="M 67.5,28.5 C 71.224,28.0502 73.3907,29.7168 74,33.5C 82.0772,58.7083 75.5772,79.2083 54.5,95C 46.4187,99.6854 37.7521,102.185 28.5,102.5C 28.3841,99.1401 28.0508,95.8067 27.5,92.5C 48.2521,91.252 61.4188,80.5854 67,60.5C 68.9174,50.0535 67.0841,40.3868 61.5,31.5C 63.444,30.1993 65.444,29.1993 67.5,28.5 Z"/></g>
<g><path style="opacity:1" fill="#151846" d="M 129.5,47.5 C 131.017,47.5106 132.184,48.1772 133,49.5C 135.5,53.8333 138,58.1667 140.5,62.5C 137.171,63.4255 134.337,62.4255 132,59.5C 130.011,55.747 129.178,51.747 129.5,47.5 Z"/></g>
<g><path style="opacity:1" fill="#151a45" d="M 37.5,49.5 C 40.7122,56.1584 38.7122,61.1584 31.5,64.5C 31.1667,64.1667 30.8333,63.8333 30.5,63.5C 32.8443,58.8113 35.1777,54.1447 37.5,49.5 Z"/></g>
<g><path style="opacity:1" fill="#071041" d="M 137.5,71.5 C 138.919,72.4511 140.585,72.7845 142.5,72.5C 142.833,75.8333 143.167,79.1667 143.5,82.5C 140.833,82.5 138.167,82.5 135.5,82.5C 117.136,77.1407 108.636,64.8074 110,45.5C 110.92,41.7367 112.42,38.2367 114.5,35C 117.098,35.1256 119.431,36.1256 121.5,38C 123.978,39.938 124.145,42.1047 122,44.5C 118.931,58.3729 124.097,67.3729 137.5,71.5 Z"/></g>
<g><path style="opacity:1" fill="#525575" d="M 137.5,71.5 C 139.5,71.5 141.5,71.5 143.5,71.5C 144.272,75.4517 144.605,79.4517 144.5,83.5C 141.287,83.81 138.287,83.4767 135.5,82.5C 138.167,82.5 140.833,82.5 143.5,82.5C 143.167,79.1667 142.833,75.8333 142.5,72.5C 140.585,72.7845 138.919,72.4511 137.5,71.5 Z"/></g>
<g><path style="opacity:1" fill="#081142" d="M 84.5,65.5 C 87.7088,76.4098 93.3754,85.9098 101.5,94C 96.0427,93.5663 90.5427,93.0663 85,92.5C 79.0364,92.9637 73.203,93.797 67.5,95C 76.3965,87.0418 82.0632,77.2084 84.5,65.5 Z"/></g>
<g><path style="opacity:1" fill="#474d67" d="M 27.5,75.5 C 27.5,78.1667 27.5,80.8333 27.5,83.5C 29.1667,83.5 30.8333,83.5 32.5,83.5C 30.7354,84.4614 28.7354,84.7947 26.5,84.5C 26.19,81.2869 26.5233,78.2869 27.5,75.5 Z"/></g>
<g><path style="opacity:1" fill="#061042" d="M 75.5,101.5 C 97.7148,99.1161 115.381,106.783 128.5,124.5C 126.5,127.167 124.167,129.5 121.5,131.5C 110.613,115.727 95.6126,109.227 76.5,112C 65.8411,115.332 57.5078,121.665 51.5,131C 47.7972,130.66 45.1305,128.66 43.5,125C 51.2259,113.1 61.8926,105.267 75.5,101.5 Z"/></g>
<g><path style="opacity:1" fill="#151a44" d="M 21.5,106.5 C 22.2189,108.091 23.2189,109.591 24.5,111C 31.9664,111.64 39.1331,110.473 46,107.5C 46.6667,108.167 46.6667,108.833 46,109.5C 42.2574,111.74 39.424,114.74 37.5,118.5C 37.6715,116.508 37.0049,114.842 35.5,113.5C 31.6197,112.205 27.7864,112.205 24,113.5C 22.0972,111.559 21.2639,109.226 21.5,106.5 Z"/></g>
<g><path style="opacity:1" fill="#363b5d" d="M 91.5,120.5 C 86.1383,120.472 80.8049,120.806 75.5,121.5C 78.5499,120.065 81.8832,119.398 85.5,119.5C 87.6965,119.505 89.6965,119.838 91.5,120.5 Z"/></g>
<g><path style="opacity:1" fill="#061041" d="M 91.5,120.5 C 102.291,121.875 109.625,127.542 113.5,137.5C 110.538,138.061 107.705,139.061 105,140.5C 93.0033,127.563 80.8366,127.396 68.5,140C 66.0871,140.484 63.7538,140.15 61.5,139C 59.8198,138.653 58.8198,137.653 58.5,136C 62.183,128.815 67.8496,123.982 75.5,121.5C 80.8049,120.806 86.1383,120.472 91.5,120.5 Z"/></g>
<g><path style="opacity:1" fill="#111743" d="M 80.5,139.5 C 83.8499,139.335 87.1832,139.502 90.5,140C 92.0016,140.583 93.3349,141.416 94.5,142.5C 88.8333,143.833 83.1667,143.833 77.5,142.5C 78.7701,141.712 79.7701,140.712 80.5,139.5 Z"/></g>
</svg>

<svg xmlns="http://www.w3.org/2000/svg" width="173" height="173" style="shape-rendering:geometricPrecision;text-rendering:geometricPrecision;image-rendering:optimizeQuality;fill-rule:evenodd;clip-rule:evenodd"><path fill="#010c41" d="M72.5-.5h27q60 13 73 73v27q-13 60-73 73h-27q-60-13-73-73v-27q13-60 73-73" style="opacity:.978"/><path fill="#f3f4f7" d="M37.5 118.5q2.886-5.64 8.5-9 1-1 0-2-10.3 4.46-21.5 3.5-1.921-2.114-3-4.5Q9.37 60.05 46.5 30q12.837-10.111 29-10 6.019 7.285 8.5 16.5a127 127 0 0 1 8-16q1.689-2.165 4.5-2 44.315 10.065 55.5 54 1.896 17.811-3 35l-1.5 1.5q-11.234 1.19-22-1 6.378 5.372 10.5 12.5 2.133 3.795 1 8-31.55 33.636-75.5 19.5-16.25-6.254-27.5-19.5-1-2 0-4a32 32 0 0 0 3.5-6" style="opacity:1"/><path fill="#061041" d="M97.5 27.5a43.2 43.2 0 0 1 10 3q-16.722 34.632 15 56.5 9.934 4.971 21 4.5a77 77 0 0 1-1 10q-35.766-1.51-48.5-35-6.195-20.29 3.5-39" style="opacity:1"/><path fill="#181d45" d="M52.5 71.5a9.1 9.1 0 0 0-1-5q12.226-11.86 3-26.5-7.257-1.992-7 5.5-2.022-1.54-1.5-4a21.76 21.76 0 0 1 7.5-6q7.78 9.615 5.5 22-1.7 7.908-6.5 14" style="opacity:1"/><path fill="#030d41" d="M52.5 71.5q-7.08 10.552-20 12h-5v-8q-.045-1.496 1.5-2 22.386-5.262 18.5-28-.257-7.492 7-5.5 9.226 14.64-3 26.5a9.1 9.1 0 0 1 1 5" style="opacity:1"/><path fill="#061041" d="M67.5 28.5q5.586-.675 6.5 5Q86.115 71.312 54.5 95q-12.122 7.028-26 7.5a77 77 0 0 0-1-10q31.128-1.872 39.5-32 2.876-15.67-5.5-29 2.916-1.95 6-3" style="opacity:1"/><path fill="#151846" d="M129.5 47.5q2.276.015 3.5 2l7.5 13q-4.994 1.387-8.5-3-2.983-5.63-2.5-12" style="opacity:1"/><path fill="#151a45" d="M37.5 49.5q4.818 9.987-6 15l-1-1z" style="opacity:1"/><path fill="#071041" d="M137.5 71.5q2.128 1.426 5 1l1 10h-8q-27.546-8.04-25.5-37a34.4 34.4 0 0 1 4.5-10.5q3.897.189 7 3 3.717 2.907.5 6.5-4.604 20.81 15.5 27" style="opacity:1"/><path fill="#525575" d="M137.5 71.5h6a55 55 0 0 1 1 12q-4.82.465-9-1h8l-1-10q-2.872.426-5-1" style="opacity:1"/><path fill="#081142" d="M84.5 65.5q4.813 16.365 17 28.5A736 736 0 0 1 85 92.5 136 136 0 0 0 67.5 95q13.345-11.937 17-29.5" style="opacity:1"/><path fill="#474d67" d="M27.5 75.5v8h5q-2.648 1.442-6 1-.465-4.82 1-9" style="opacity:1"/><path fill="#061042" d="M75.5 101.5q33.322-3.576 53 23-3 4-7 7-16.33-23.66-45-19.5-15.988 4.998-25 19-5.555-.51-8-6 11.59-17.85 32-23.5" style="opacity:1"/><path fill="#151a44" d="M21.5 106.5q1.079 2.386 3 4.5 11.2.96 21.5-3.5 1 1 0 2-5.614 3.36-8.5 9 .258-2.987-2-5-5.82-1.942-11.5 0-2.854-2.911-2.5-7" style="opacity:1"/><path fill="#363b5d" d="M91.5 120.5a118 118 0 0 0-16 1q4.575-2.153 10-2 3.296.007 6 1" style="opacity:1"/><path fill="#061041" d="M91.5 120.5q16.187 2.063 22 17a29.8 29.8 0 0 0-8.5 3q-17.995-19.406-36.5-.5-3.62.726-7-1-2.52-.52-3-3 5.525-10.777 17-14.5a118 118 0 0 1 16-1" style="opacity:1"/><path fill="#111743" d="M80.5 139.5q5.025-.247 10 .5a12.4 12.4 0 0 1 4 2.5q-8.5 2-17 0 1.905-1.182 3-3" style="opacity:1"/></svg>
